X: 101
T:Katell
M:4/4
L:1/8
C:Jonathan Shorland
R:Schottische
Z:Steve Mansfield
K:Am
ecAc e2ce | dcBd cBAc | ecAc e2ce | dcBc A4 :|
|: GAAG A2Ae | dcBd cBAB | GAAG A2Ae | dcBc G4 :|
<end>
<start>
